X: 37835
T: Sonny's Return
R: reel
M: 4/4
K: Eminor
|:BEEF GFED|BDD2 EDBD|GEEF GFED|BGGA Beed|
BEEF GFED|BDD2 EDBD|GABd edBG|1 EGFD E4:|2 EGFD E3F||
|:G2BG dGBG|G2 (3Bcd edBA|G2 BG dGBG|A2BA GEEF|
G2BG dGBG|G2 (3Bcd edBA|egfe dBAG|BEED E4:|

